svg/fluentui-system-icons/ic_fluent_person_clock_24_regular.svg

<svg width="24" height="24" viewBox="0 0 24 24" fill="none" xmlns="http://www.w3.org/2000/svg">
<path d="M11.3135 15.5002C11.4859 14.9667 11.7253 14.4634 12.0219 14.0002H4.25278C3.01076 14.0002 2.00391 15.007 2.00391 16.2491V16.8267C2.00391 17.7195 2.32242 18.583 2.90219 19.2619C4.46849 21.0962 6.8545 22.0013 10.0004 22.0013C10.9314 22.0013 11.7961 21.922 12.5927 21.7629C12.2335 21.3496 11.9256 20.8906 11.6789 20.3957C11.1555 20.466 10.5962 20.5013 10.0004 20.5013C7.26206 20.5013 5.29618 19.7555 4.04287 18.2878C3.69502 17.8805 3.50391 17.3624 3.50391 16.8267V16.2491C3.50391 15.8355 3.83919 15.5002 4.25278 15.5002H11.3135ZM10.0004 2.00488C12.7618 2.00488 15.0004 4.24346 15.0004 7.00488C15.0004 9.76631 12.7618 12.0049 10.0004 12.0049C7.23894 12.0049 5.00036 9.76631 5.00036 7.00488C5.00036 4.24346 7.23894 2.00488 10.0004 2.00488ZM10.0004 3.50488C8.06737 3.50488 6.50036 5.07189 6.50036 7.00488C6.50036 8.93788 8.06737 10.5049 10.0004 10.5049C11.9334 10.5049 13.5004 8.93788 13.5004 7.00488C13.5004 5.07189 11.9334 3.50488 10.0004 3.50488ZM17.5 12.0002C20.5376 12.0002 23 14.4627 23 17.5002C23 20.5378 20.5376 23.0002 17.5 23.0002C14.4624 23.0002 12 20.5378 12 17.5002C12 14.4627 14.4624 12.0002 17.5 12.0002ZM19.5 17.5003H17.5L17.5 15.0002C17.5 14.724 17.2761 14.5002 17 14.5002C16.7239 14.5002 16.5 14.724 16.5 15.0002L16.5 17.9988L16.5 18.0003C16.5 18.2764 16.7239 18.5003 17 18.5003H19.5C19.7761 18.5003 20 18.2764 20 18.0003C20 17.7242 19.7761 17.5003 19.5 17.5003Z" fill="#212121"/>
</svg>

<svg xmlns="http://www.w3.org/2000/svg" width="24" height="24"><path d="M11.313 15.5a6.471 6.471 0 0 1 .709-1.5h-7.77a2.249 2.249 0 0 0-2.248 2.25v.577c0 .892.318 1.756.898 2.435 1.566 1.834 3.952 2.74 7.098 2.74.931 0 1.796-.08 2.593-.24a6.517 6.517 0 0 1-.914-1.366 12.69 12.69 0 0 1-1.679.105c-2.738 0-4.704-.745-5.957-2.213a2.25 2.25 0 0 1-.54-1.461v-.578a.75.75 0 0 1 .75-.749h7.06ZM10 2.005a5 5 0 1 1 0 10 5 5 0 0 1 0-10Zm0 1.5a3.5 3.5 0 1 0 0 7 3.5 3.5 0 0 0 0-7ZM17.5 12a5.5 5.5 0 1 1 0 11 5.5 5.5 0 0 1 0-11Zm2 5.5h-2V15a.5.5 0 1 0-1 0v3a.5.5 0 0 0 .5.5h2.5a.5.5 0 0 0 0-1Z"/></svg>
